public/pieces/icpieces/wR.svg

<svg height="368" width="368" xmlns="http://www.w3.org/2000/svg"><path d="m87 96v31c0 4.312-.9559 10.03 1.0278 14 1.7108 3.424 5.0631 6.138 7.5478 9 6.4544 7.434 13.1994 14.615 19.7094 22 2.731 3.097 6.647 6.027 8.112 10 2.373 6.439.603 16.186.603 23 0 16.469 1.369 33.598-.059 50-.594 6.83-7.494 11.39-11.902 16-6.37 6.662-12.4269 13.535-19.039 19.985-3.7794 3.687-8.3707 6.795-11.581 11.019-6.3994 8.42-3.419 23.977-3.419 33.996h212c0-9.966 3.007-25.638-3.419-33.985-3.211-4.172-7.843-7.325-11.581-11.019-6.57-6.491-12.669-13.333-19.039-19.996-4.408-4.61-11.308-9.17-11.902-16-1.428-16.402-.059-33.531-.059-50 0-6.814-1.77-16.561.603-23 1.465-3.973 5.381-6.903 8.112-10 6.51-7.385 13.255-14.566 19.709-22 2.485-2.862 5.837-5.576 7.548-9 1.984-3.97 1.028-9.688 1.028-14v-31h-51v19h-22v-19h-47v19h-23v-19z"/><path d="m97 106v20c0 3.178-.5161 6.964.6034 10 2.4126 6.542 10.6086 12.921 15.3106 17.999 2.124 2.293 4.105 5.233 7.125 6.398 6.57 2.533 16.967.603 23.961.603h53 37c4.771 0 11.712 1.27 15.83-1.603 5.132-3.581 9.167-9.775 13.34-14.397 2.509-2.78 5.895-5.388 7.227-9 1.119-3.036.603-6.822.603-10v-20h-31v19h-42v-19h-27v19h-43v-19zm37 64v102h100v-102zm-46 156h192c0-4.788 1.15-11.348-.742-15.83-1.532-3.629-5.535-6.457-8.258-9.171-6.217-6.197-13.094-16.018-21-19.971-4.201-2.101-10.432-1.028-15-1.028h-32-58c-7.641 0-18.792-2.054-26 .603-5.116 1.887-9.245 7.642-13 11.397-5.137 5.137-14.4053 11.413-17.2577 18.17-1.8923 4.482-.7423 11.042-.7423 15.83z" fill="#fff"/></svg>

<?xml version="1.0" standalone="yes"?>
<svg xmlns="http://www.w3.org/2000/svg" width="368" height="368">
<path style="fill:#000000; stroke:none;" d="M87 96L87 127C87 131.312 86.0441 137.03 88.0278 141C89.7386 144.424 93.0909 147.138 95.5756 150C102.03 157.434 108.775 164.615 115.285 172C118.016 175.097 121.932 178.027 123.397 182C125.77 188.439 124 198.186 124 205C124 221.469 125.369 238.598 123.941 255C123.347 261.83 116.447 266.39 112.039 271C105.669 277.662 99.6121 284.535 93 290.985C89.2206 294.672 84.6293 297.78 81.419 302.004C75.0196 310.424 78 325.981 78 336L290 336C290 326.034 293.007 310.362 286.581 302.015C283.37 297.843 278.738 294.69 275 290.996C268.43 284.505 262.331 277.663 255.961 271C251.553 266.39 244.653 261.83 244.059 255C242.631 238.598 244 221.469 244 205C244 198.186 242.23 188.439 244.603 182C246.068 178.027 249.984 175.097 252.715 172C259.225 164.615 265.97 157.434 272.424 150C274.909 147.138 278.261 144.424 279.972 141C281.956 137.03 281 131.312 281 127L281 96L230 96L230 115L208 115L208 96L161 96L161 115L138 115L138 96L87 96z"/>
<path style="fill:#ffffff; stroke:none;" d="M97 106L97 126C97 129.178 96.4839 132.964 97.6034 136C100.016 142.542 108.212 148.921 112.914 153.999C115.038 156.292 117.019 159.232 120.039 160.397C126.609 162.93 137.006 161 144 161L197 161L234 161C238.771 161 245.712 162.27 249.83 159.397C254.962 155.816 258.997 149.622 263.17 145C265.679 142.22 269.065 139.612 270.397 136C271.516 132.964 271 129.178 271 126L271 106L240 106L240 125L198 125L198 106L171 106L171 125L128 125L128 106L97 106M134 170L134 272L234 272L234 170L134 170M88 326L280 326C280 321.212 281.15 314.652 279.258 310.17C277.726 306.541 273.723 303.713 271 300.999C264.783 294.802 257.906 284.981 250 281.028C245.799 278.927 239.568 280 235 280L203 280L145 280C137.359 280 126.208 277.946 119 280.603C113.884 282.49 109.755 288.245 106 292C100.863 297.137 91.5947 303.413 88.7423 310.17C86.85 314.652 88 321.212 88 326z"/>
</svg>
